X:1
T:Miss Jane Sharp of Heddon's Reel
T:Miss Jane Sharp of Heddon's Reel
T:Abraham Mackintosh
C:Abraham Mackintosh
%%score 1 2
L:1/8
M:2/2
K:A
V:1 treble 
V:2 bass 
V:1
 g | a2 e>c d<BBd | cdec ef/g/ ae | c<Aec B>cde | f<ae>c d<BB :: d | c<AAc d<BBd | c<AAc ef/g/ ae | %8
 c<Aec B>cde | f>ae>c d<BB :| %10
V:2
 z | [A,CE]2 [A,CE]2 [E,G,B,E]2 [E,G,B,E]2 | [A,CE]2 [A,CE]2 [A,CE]2 [A,CE]2 | %3
 [A,CE]2 [A,CE]2 G,A,B,C | [A,D]2 [A,C]2 [E,G,B,]2 [E,G,B,] :: z | %6
 [A,CE]2 [A,CE]2 [E,G,B,E]2 [E,G,B,E]2 | [A,CE]2 [A,CE]2 [A,CE]2 [A,CE]2 | %8
 [A,CE]2 [A,CE]2 G,A,B,C | [A,D]2 [A,C]2 [E,G,B,]2 [E,G,B,] :| %10

